X: 4020
T: GOUROCK BAY
R: Reel.
%R: reel
B: James Kerr "Merry Melodies" v.4 p.05 #20
Z: 2016 John Chambers <jc:trillian.mit.edu>
M: C|
L: 1/8
K: A
|:\
efec efec | eaga bagf |\
efec efec | BAGA Bcd^d ::\
efec AEAc | BABc ABcd |\
efec AEAc |[1 BAGA Bcd^d :|[2 BABc A2a2 |]

%%sep 1 1 500
%%sep 1 1 500

